22x22/apps/punes.svg

<svg xmlns="http://www.w3.org/2000/svg" width="22" height="22"><g transform="translate(-1 -1)"><rect style="opacity:.2" width="21" height="21" x="2" y="1.5" rx="1.05" ry="1.05"/><rect style="fill:#f4f4f7" width="21" height="21" x="2" y="1" rx="1.05" ry="1.05"/><path style="opacity:.1" d="M17 12.5s-1 0-1 1v1c0 1 1 1 1 1h2.5s.5 0 .5.5-.5.5-.5.5H16v1h4s1 0 1-1v-1c0-1-1-1-1-1h-2.5s-.5 0-.5-.5.5-.5.5-.5H21v-1zm-7 0v4c0 1 1 1 1 1h4v-1h-3.5s-.5 0-.5-.5.5-.5.5-.5H15v-1h-3.5s-.5 0-.5-.5.5-.5.5-.5H15v-1zm-6 0v5h1v-4h2.5s.5 0 .5.5v3.5h1v-4c0-1-1-1-1-1zm9-7v4c0 1 1 1 1 1h3s1 0 1-1v-4h-1V9c0 .5-.5.5-.5.5h-2s-.5 0-.5-.5V5.5zm-6 0v5h1V9s0-.5.5-.5H11s1 0 1-1v-1c0-1-1-1-1-1zm1.5 1h2s.5 0 .5.5-.5.5-.5.5h-2S8 7.5 8 7s.5-.5.5-.5z"/><path style="fill:#007f0e" d="M17 12s-1 0-1 1v1c0 1 1 1 1 1h2.5s.5 0 .5.5-.5.5-.5.5H16v1h4s1 0 1-1v-1c0-1-1-1-1-1h-2.5s-.5 0-.5-.5.5-.5.5-.5H21v-1zm-7 0v4c0 1 1 1 1 1h4v-1h-3.5s-.5 0-.5-.5.5-.5.5-.5H15v-1h-3.5s-.5 0-.5-.5.5-.5.5-.5H15v-1zm-6 0v5h1v-4h2.5s.5 0 .5.5V17h1v-4c0-1-1-1-1-1zm9-7v4c0 1 1 1 1 1h3s1 0 1-1V5h-1v3.5c0 .5-.5.5-.5.5h-2s-.5 0-.5-.5V5zM7 5v5h1V8.5s0-.5.5-.5H11s1 0 1-1V6c0-1-1-1-1-1zm1.5 1h2s.5 0 .5.5-.5.5-.5.5h-2S8 7 8 6.5s.5-.5.5-.5z"/><path style="opacity:.2;fill:#f4f4f7" d="M3.05 1C2.47 1 2 1.47 2 2.05v.5c0-.58.47-1.05 1.05-1.05H21.95c.582 0 1.051.47 1.051 1.05v-.5C23 1.47 22.531 1 21.949 1z"/></g></svg>

<svg xmlns="http://www.w3.org/2000/svg" width="22" height="22" version="1.1">
 <g transform="translate(-1,-1)">
  <rect style="opacity:0.2" width="21" height="21" x="2" y="1.5" rx="1.05" ry="1.05"/>
  <rect style="fill:#f4f4f7" width="21" height="21" x="2" y="1" rx="1.05" ry="1.05"/>
  <path style="opacity:0.1" d="M 17,12.5 C 17,12.5 16,12.5 16,13.5 V 14.5 C 16,15.5 17,15.5 17,15.5 H 19.5 C 19.5,15.5 20,15.5 20,16 20,16.5 19.5,16.5 19.5,16.5 H 16 V 17.5 H 20 C 20,17.5 21,17.5 21,16.5 V 15.5 C 21,14.5 20,14.5 20,14.5 H 17.5 C 17.5,14.5 17,14.5 17,14 17,13.5 17.5,13.5 17.5,13.5 H 21 V 12.5 Z M 10,12.5 V 16.5 C 10,17.5 11,17.5 11,17.5 H 15 V 16.5 H 11.5 C 11.5,16.5 11,16.5 11,16 11,15.5 11.5,15.5 11.5,15.5 H 15 V 14.5 H 11.5 C 11.5,14.5 11,14.5 11,14 11,13.5 11.5,13.5 11.5,13.5 H 15 V 12.5 Z M 4,12.5 V 17.5 H 5 V 13.5 H 7.5 C 7.5,13.5 8,13.5 8,14 V 17.5 H 9 V 13.5 C 9,12.5 8,12.5 8,12.5 Z M 13,5.5 V 9.5 C 13,10.5 14,10.5 14,10.5 H 17 C 17,10.5 18,10.5 18,9.5 V 5.5 H 17 V 9 C 17,9.5 16.5,9.5 16.5,9.5 H 14.5 C 14.5,9.5 14,9.5 14,9 V 5.5 Z M 7,5.5 V 10.5 H 8 V 9 C 8,9 8,8.5 8.5,8.5 H 11 C 11,8.5 12,8.5 12,7.5 V 6.5 C 12,5.5 11,5.5 11,5.5 Z M 8.5,6.5 H 10.5 C 10.5,6.5 11,6.5 11,7 11,7.5 10.5,7.5 10.5,7.5 H 8.5 C 8.5,7.5 8,7.5 8,7 8,6.5 8.5,6.5 8.5,6.5 Z"/>
  <path style="fill:#007f0e" d="M 17,12 C 17,12 16,12 16,13 V 14 C 16,15 17,15 17,15 H 19.5 C 19.5,15 20,15 20,15.5 20,16 19.5,16 19.5,16 H 16 V 17 H 20 C 20,17 21,17 21,16 V 15 C 21,14 20,14 20,14 H 17.5 C 17.5,14 17,14 17,13.5 17,13 17.5,13 17.5,13 H 21 V 12 Z M 10,12 V 16 C 10,17 11,17 11,17 H 15 V 16 H 11.5 C 11.5,16 11,16 11,15.5 11,15 11.5,15 11.5,15 H 15 V 14 H 11.5 C 11.5,14 11,14 11,13.5 11,13 11.5,13 11.5,13 H 15 V 12 Z M 4,12 V 17 H 5 V 13 H 7.5 C 7.5,13 8,13 8,13.5 V 17 H 9 V 13 C 9,12 8,12 8,12 Z M 13,5 V 9 C 13,10 14,10 14,10 H 17 C 17,10 18,10 18,9 V 5 H 17 V 8.5 C 17,9 16.5,9 16.5,9 H 14.5 C 14.5,9 14,9 14,8.5 V 5 Z M 7,5 V 10 H 8 V 8.5 C 8,8.5 8,8 8.5,8 H 11 C 11,8 12,8 12,7 V 6 C 12,5 11,5 11,5 Z M 8.5,6 H 10.5 C 10.5,6 11,6 11,6.5 11,7 10.5,7 10.5,7 H 8.5 C 8.5,7 8,7 8,6.5 8,6 8.5,6 8.5,6 Z"/>
  <path style="opacity:0.2;fill:#f4f4f7" d="M 3.0508,1 C 2.4691,1 2,1.4691 2,2.0508 V 2.5508 C 2,1.9691 2.4691,1.5 3.0508,1.5 H 21.949 C 22.531,1.5 23,1.9691 23,2.5508 V 2.0508 C 23,1.4691 22.531,1 21.949,1 Z"/>
 </g>
</svg>
